X: 29404
T: Nicky's Archive
R: barndance
M: 4/4
K: Dmajor
B|:A2 F2 A2- A>B|A2 G2 G>FE>B|c<E- E2 c2 c>B|A>cd>e f>ed>B|
A2 F2 A2- A>B|A2 G2 G>FE>B|c2 e2 c2 c>B|A>GF>E D>EF>G:|
|:A2 f2 f2- f>c|e2 d2 d>cB>A|B2 g2 g2- g>f|e>df>d A>GF>G|
A2 f2 f2- f>c|e2 d2 d>cB>d|c2 E2 c2 c>B|A>GF>E D>EF>G:|

